svgs/sharp-solid/photo-film.svg

<svg xmlns="http://www.w3.org/2000/svg" viewBox="0 0 640 512"><!--! Font Awesome Pro 6.6.0 by @fontawesome - https://fontawesome.com License - https://fontawesome.com/license (Commercial License) Copyright 2024 Fonticons, Inc. --><path d="M640 0l0 352-448 0L192 0 640 0zM475.6 106.2L456 78.4l-19.6 27.8-57.3 81.2-17.1-19.3L344 147.9l-17.9 20.2-64 72-6.1 6.8 0 9.1 0 8 0 24 24 0 56 0 24 0 48 0 24 0 120 0 24 0 0-24 0-8 0-7.6-4.4-6.2-96-136zM336 96a32 32 0 1 0 -64 0 32 32 0 1 0 64 0zM0 128l160 0 0 256 0 64 192 0 0-64 160 0 0 128L0 512 0 128zm104 64l-48 0 0 48 48 0 0-48zm0 104l-48 0 0 48 48 0 0-48zm0 104l-48 0 0 48 48 0 0-48zm304 0l0 48 48 0 0-48-48 0z"/></svg>

<svg xmlns="http://www.w3.org/2000/svg" viewBox="0 0 640 512"><!--! Font Awesome Pro 6.4.2 by @fontawesome - https://fontawesome.com License - https://fontawesome.com/license (Commercial License) Copyright 2023 Fonticons, Inc. --><path d="M640 0V352H192V0H640zM475.6 106.2L456 78.4l-19.6 27.8-57.3 81.2-17.1-19.3L344 147.9l-17.9 20.2-64 72-6.1 6.8V256v8 24h24 56 24 48 24H552h24V264v-8-7.6l-4.4-6.2-96-136zM336 96a32 32 0 1 0 -64 0 32 32 0 1 0 64 0zM0 128H160V384v64H352V384H512V512H0V128zm104 64H56v48h48V192zm0 104H56v48h48V296zm0 104H56v48h48V400zm304 0v48h48V400H408z"/></svg>
